packages/elements/bolt-icon/src/svgs/ribbon.svg

<svg enable-background="new 0 0 32 32" viewBox="0 0 32 32" xmlns="http://www.w3.org/2000/svg"><path clip-rule="evenodd" d="m25.3 24.3c-.5-.1-1 .2-1.2.6l-1.3 3.5-2.8-5.1c2.3-.8 4.3-2.3 5.7-4.3l3.4 6.2zm-9.3-2.3c-5.5 0-9.9-4.4-9.9-9.9s4.4-9.9 9.9-9.9 9.9 4.4 9.9 9.9-4.4 9.9-9.9 9.9zm-6.9 6.4-1.3-3.5c-.2-.5-.7-.8-1.2-.6l-3.6.8 3.4-6.1c1.4 1.9 3.3 3.4 5.6 4.2zm22.7-2.3-5-9.2c.7-1.6 1.1-3.3 1.1-5 0-6.6-5.3-11.9-11.9-11.9-6.6.1-11.9 5.4-11.9 12 0 1.7.4 3.5 1.1 5.1l-5 9.1c-.2.3-.1.7.1 1s.6.5 1 .4l5-1.1 1.7 4.8c.1.4.4.7.8.7h.1c.4 0 .7-.2.9-.5l4.1-7.7c.7.2 1.4.2 2.1.2s1.3-.1 2-.2l4.2 7.7c.2.3.5.5.9.5h.1c.4 0 .8-.3.9-.7l1.7-4.8 5 1.1c.4.1.8-.1 1-.4.1-.3.2-.7 0-1.1z" fill="#151619" fill-rule="evenodd"/></svg>

<?xml version="1.0" encoding="utf-8"?>
<!-- Generator: Adobe Illustrator 25.2.0, SVG Export Plug-In . SVG Version: 6.00 Build 0)  -->
<svg version="1.1" id="Layer_1" xmlns="http://www.w3.org/2000/svg" xmlns:xlink="http://www.w3.org/1999/xlink" x="0px" y="0px"
	 viewBox="0 0 32 32" style="enable-background:new 0 0 32 32;" xml:space="preserve">
<style type="text/css">
	.st0{fill-rule:evenodd;clip-rule:evenodd;fill:#151619;}
</style>
<path class="st0" d="M25.3,24.3c-0.5-0.1-1,0.2-1.2,0.6l-1.3,3.5L20,23.3c2.3-0.8,4.3-2.3,5.7-4.3l3.4,6.2L25.3,24.3z M16,22
	c-5.5,0-9.9-4.4-9.9-9.9s4.4-9.9,9.9-9.9s9.9,4.4,9.9,9.9S21.5,22,16,22z M9.1,28.4l-1.3-3.5c-0.2-0.5-0.7-0.8-1.2-0.6c0,0,0,0,0,0
	L3,25.1L6.4,19c1.4,1.9,3.3,3.4,5.6,4.2L9.1,28.4z M31.8,26.1l-5-9.2c0.7-1.6,1.1-3.3,1.1-5C27.9,5.3,22.6,0,16,0
	C9.4,0.1,4.1,5.4,4.1,12c0,1.7,0.4,3.5,1.1,5.1l-5,9.1c-0.2,0.3-0.1,0.7,0.1,1c0.2,0.3,0.6,0.5,1,0.4l5-1.1l1.7,4.8
	C8.1,31.7,8.4,32,8.8,32h0.1c0.4,0,0.7-0.2,0.9-0.5l4.1-7.7C14.6,24,15.3,24,16,24c0.7,0,1.3-0.1,2-0.2l4.2,7.7
	c0.2,0.3,0.5,0.5,0.9,0.5h0.1c0.4,0,0.8-0.3,0.9-0.7l1.7-4.8l5,1.1c0.4,0.1,0.8-0.1,1-0.4C31.9,26.9,32,26.5,31.8,26.1z"/>
</svg>
